X:754
T:Fear a Bhois Fada Gun Phosadh
D:Tannas, Suilean Dubh (1999)
Z:Nigel Gatherer
M:6/8
L:1/8
K:Em
EEE G2A | B3  d3  | D2D F2G | A2B AFD |
EEE G2A | B3  d3  | e2B BAF | E3  E3 :|
G2G F2E | G2G F2E | D2D F2G | A2B AFD |
G2G F2E | G2G F2E | B2B BAF | E3  E3 :|
<end>
<start>
